!!! OTL: Berkowitz80
!!! Chapter: 1
!!! Section: I
!!! Page: 21
!!! Mode: 
!!! Encoder: DJB
**kern
*staff1
*I"Piano
=1-
*clefG2
*k[]
*C:
*M6/8
4.c/
4.g/
=2
8f/L
8e/
8d/J
4.e/
=3
8f/L
8e/
8f/J
8g/L
8f/
8g/J
=4
4.e/
4.d/
=5
8e/L
8d/
8e/J
8f/L
8e/
8f/J
=6
4.g/
4.a/
=7
8g/L
8f/
8e/J
8d/L
8c/
8B/J
=8
2.c/
==
*-
